X: 20
T:Reilly Of The White Hill
M:2/2
L:1/8
C:Ed Reavy
R:Reel
N:Reilly had a wild look and a fondness for
N:cheating at cards. Before the night was
N:finished you could bet your
N:last skin of a potato that Reilly would
N:be stirring up trouble. No one
N:knew his first name. He was one
N:of the "White Hill people" from a
N:region beyond the northern borders
N:of Ed's farmland.
Z:Joe Reavy
K:D
FG|:Agfe dcdA|B2 (3dcB AFDF|GFGB AFDF|EA,CE DEFG|
Agfe dcdA|B2 (3dcB AFDF|GFGB AFDF|1 EA,CE DEFG:|
|2EDCE D2 g||fdAd fgaf|bged cdeg|fdAd fgaf|
bgeg fdde|fgfe dfaf|gfed cdef|dcdA (3Bcd AF|
|1EDCE D3 g:|2 EDCE DEFG||
